static/assets/template/assets/img/icons/essential/detailed/Deliver_by_Air.svg

<svg height="106" viewBox="0 0 147 106" width="147" xmlns="http://www.w3.org/2000/svg"><g fill="none" fill-rule="evenodd" transform="translate(1 1)"><g fill-rule="nonzero"><path d="m143.7 102.9v.5h-118c0-.2 0-.3 0-.5 0-32.6 26.4-59 59-59s59 26.4 59 59z"/><path d="m143.7 102.9v.5h-118c0-.2 0-.3 0-.5 0-26.3 17.2-48.6 40.9-56.2 5.7-1.8 11.8-2.8 18.1-2.8 9.6 0 18.6 2.3 26.6 6.3 16 8.1 27.8 23.2 31.3 41.3.7 3.7 1.1 7.5 1.1 11.4z"/><path d="m143.7 102.9v.5h-17.2c.7-1.3 1.3-2.6 2-4 .6-1.1 1.1-2.2 1.9-3.1 1.1-1.3 2.6-2.1 4.2-2.8 2.2-.9 4.4-1.6 6.8-1.9.4 0 .8-.1 1.2-.1.7 3.7 1.1 7.5 1.1 11.4z"/><path d="m97.8 101.5c-.5.7-1 1.4-1.4 2.2h-25.9c-.4-3-.6-6.1-.4-9.1.6-12.1-4.6-13.9-11.5-22.5-5.9-7.4-4.7-8.9 7.8-23.6l1-1.9c5.7-1.8 11.1-3 17.4-3 9.6 0 18.9 2.8 26.9 6.8.1 7.5.6 17.4 3.5 24 4.5 10.3-11.1 18.4-17.4 27.1z"/></g><g stroke-linecap="round" stroke-linejoin="round" stroke-width="3" transform="translate(25 43)"><path d="m65.7.8 1.9.2c6.6.8 13 2.8 18.7 5.6 16.4 8.1 28.4 23.5 32 41.9.7 3.6 1.1 7.3 1.1 11.1"/><path d="m27 10.6c4.6-3.1 9.7-5.6 15.1-7.3 3.4-1.1 6.9-1.9 10.6-2.3"/><path d="m20.1 16.1c.6-.5 1.1-1 1.7-1.5"/><path d="m.9 59.7c0-13.8 4.8-26.6 12.8-36.6"/><path d="m75.5 2.6c3.8 1 7.4 2.4 10.8 4.1 0 7.5.8 16.8 3.8 23.7 4.6 10.4-11 18.5-17.3 27.1-.5.7-1 1.4-1.4 2.2"/><path d="m45.5 59.7c-.4-3-.5-6.1-.4-9.1.6-12.1-4.6-13.9-11.6-22.5-5.9-7.4-4.7-8.9 7.8-23.6"/></g><g stroke-linecap="round" stroke-linejoin="round" stroke-width="3" transform="translate(0 31)"><path d="m11.6 30.3c6.9-12.1 16.6-22.3 28.4-29.7"/><path d="m2.3 55.1c1.2-5.9 3-11.6 5.4-17.1"/><path d="m.6 71.8c0-2 .1-4.1.2-6.1"/></g><g transform="translate(46)"><path d="m71.5 17.7c-3.9-1.8-8.2-2.5-12.5-2l-43.2 4.3-7.5-6.2c-2.2-1.8-5.2-2.7-8-2.3l5 17.3c1.1 4 4.9 6.6 9 6.2l16.3-1.4 1.8 16.5 5.5-.4c3-.3 5.6-2.3 6.6-5.2l3.9-12.3 25.2-2.1c2.7-.2 5-1.8 6.1-4.3l1.7-3.5z" fill-rule="nonzero"/><path d="m71.5 17.7c-3.9-1.8-8.2-2.5-12.5-2l-43.2 4.3-7.5-6.2c-2.2-1.8-5.2-2.7-8-2.3l5 17.3c1.1 4 4.9 6.6 9 6.2l16.3-1.4 1.8 16.5 5.5-.4c3-.3 5.6-2.3 6.6-5.2l3.9-12.3 25.2-2.1c2.7-.2 5-1.8 6.1-4.3l1.7-3.5z" fill-rule="nonzero"/><g stroke-linecap="round" stroke-linejoin="round" stroke-width="3"><path d="m33.2 11.1 3.9-9.7 5.1-.4c3.3-.2 6.2 2.2 6.6 5.4l1.2 9.8"/><path d="m29.9 27.2 2.5 22.9 5.5-.4c3-.3 5.6-2.3 6.6-5.2l6-18.9"/><path d="m56.3 31.4 17.3-1.5c2.7-.2 5-1.8 6.1-4.3l1.7-3.5-10-4.5c-3.9-1.8-8.2-2.5-12.5-2l-43.2 4.3-7.5-6.2c-2.2-1.8-5.2-2.7-8-2.3l5 17.3c1.1 4 4.9 6.6 9 6.2l16.3-1.4"/></g></g><path d="m143.2 91.6c-9.1.7-13.2 1.1-16.2 11.7" stroke-linecap="round" stroke-linejoin="round" stroke-width="3"/></g></svg>

<?xml version="1.0" encoding="UTF-8"?>
<svg width="147px" height="106px" viewBox="0 0 147 106" version="1.1" xmlns="http://www.w3.org/2000/svg" xmlns:xlink="http://www.w3.org/1999/xlink">
    <!-- Generator: Sketch 51.2 (57519) - http://www.bohemiancoding.com/sketch -->
    <title>Deliver_by_Air</title>
    <desc>Created with Sketch.</desc>
    <defs></defs>
    <g id="Page-1" stroke="none" stroke-width="1" fill="none" fill-rule="evenodd">
        <g id="Deliver_by_Air" transform="translate(1.000000, 1.000000)">
            <path d="M143.7,102.9 C143.7,103.1 143.7,103.2 143.7,103.4 L25.7,103.4 C25.7,103.2 25.7,103.1 25.7,102.9 C25.7,70.3 52.1,43.9 84.7,43.9 C117.3,43.9 143.7,70.3 143.7,102.9 Z" id="Shape" class="fill-neutral" fill-rule="nonzero"></path>
            <path d="M143.7,102.9 C143.7,103.1 143.7,103.2 143.7,103.4 L25.7,103.4 C25.7,103.2 25.7,103.1 25.7,102.9 C25.7,76.6 42.9,54.3 66.6,46.7 C72.3,44.9 78.4,43.9 84.7,43.9 C94.3,43.9 103.3,46.2 111.3,50.2 C127.3,58.3 139.1,73.4 142.6,91.5 C143.3,95.2 143.7,99 143.7,102.9 Z" id="Shape" class="fill-primary-300" fill-rule="nonzero"></path>
            <path d="M143.7,102.9 C143.7,103.1 143.7,103.2 143.7,103.4 L126.5,103.4 C127.2,102.1 127.8,100.8 128.5,99.4 C129.1,98.3 129.6,97.2 130.4,96.3 C131.5,95 133,94.2 134.6,93.5 C136.8,92.6 139,91.9 141.4,91.6 C141.8,91.6 142.2,91.5 142.6,91.5 C143.3,95.2 143.7,99 143.7,102.9 Z" id="Shape" class="fill-neutral" fill-rule="nonzero"></path>
            <path d="M97.8,101.5 C97.3,102.2 96.8,102.9 96.4,103.7 L70.5,103.7 C70.1,100.7 69.9,97.6 70.1,94.6 C70.7,82.5 65.5,80.7 58.6,72.1 C52.7,64.7 53.9,63.2 66.4,48.5 L67.4,46.6 C73.1,44.8 78.5,43.6 84.8,43.6 C94.4,43.6 103.7,46.4 111.7,50.4 C111.8,57.9 112.3,67.8 115.2,74.4 C119.7,84.7 104.1,92.8 97.8,101.5 Z" id="Shape" class="fill-neutral" fill-rule="nonzero"></path>
            <g id="Group" transform="translate(25.000000, 43.000000)" class="stroke-primary" stroke-linecap="round" stroke-linejoin="round" stroke-width="3">
                <path d="M65.7,0.8 L67.6,1 C74.2,1.8 80.6,3.8 86.3,6.6 C102.7,14.7 114.7,30.1 118.3,48.5 C119,52.1 119.4,55.8 119.4,59.6" id="Shape"></path>
                <path d="M27,10.6 C31.6,7.5 36.7,5 42.1,3.3 C45.5,2.2 49,1.4 52.7,1" id="Shape"></path>
                <path d="M20.1,16.1 C20.7,15.6 21.2,15.1 21.8,14.6" id="Shape"></path>
                <path d="M0.9,59.7 C0.9,45.9 5.7,33.1 13.7,23.1" id="Shape"></path>
                <path d="M75.5,2.6 C79.3,3.6 82.9,5 86.3,6.7 C86.3,14.2 87.1,23.5 90.1,30.4 C94.7,40.8 79.1,48.9 72.8,57.5 C72.3,58.2 71.8,58.9 71.4,59.7" id="Shape"></path>
                <path d="M45.5,59.7 C45.1,56.7 45,53.6 45.1,50.6 C45.7,38.5 40.5,36.7 33.5,28.1 C27.6,20.7 28.8,19.2 41.3,4.5" id="Shape"></path>
            </g>
            <g id="Group" transform="translate(0.000000, 31.000000)" class="stroke-primary" stroke-linecap="round" stroke-linejoin="round" stroke-width="3">
                <path d="M11.6,30.3 C18.5,18.2 28.2,8 40,0.6" id="Shape"></path>
                <path d="M2.3,55.1 C3.5,49.2 5.3,43.5 7.7,38" id="Shape"></path>
                <path d="M0.6,71.8 C0.6,69.8 0.7,67.7 0.8,65.7" id="Shape"></path>
            </g>
            <g id="Group" transform="translate(46.000000, 0.000000)">
                <path d="M71.5,17.7 C67.6,15.9 63.3,15.2 59,15.7 L15.8,20 L8.3,13.8 C6.1,12 3.1,11.1 0.3,11.5 L5.3,28.8 C6.4,32.8 10.2,35.4 14.3,35 L30.6,33.6 L32.4,50.1 L37.9,49.7 C40.9,49.4 43.5,47.4 44.5,44.5 L48.4,32.2 L73.6,30.1 C76.3,29.9 78.6,28.3 79.7,25.8 L81.4,22.3 L71.5,17.7 Z" id="Shape" class="fill-neutral" fill-rule="nonzero"></path>
                <path d="M71.5,17.7 C67.6,15.9 63.3,15.2 59,15.7 L15.8,20 L8.3,13.8 C6.1,12 3.1,11.1 0.3,11.5 L5.3,28.8 C6.4,32.8 10.2,35.4 14.3,35 L30.6,33.6 L32.4,50.1 L37.9,49.7 C40.9,49.4 43.5,47.4 44.5,44.5 L48.4,32.2 L73.6,30.1 C76.3,29.9 78.6,28.3 79.7,25.8 L81.4,22.3 L71.5,17.7 Z" id="Shape" class="fill-primary-100" fill-rule="nonzero"></path>
                <path d="M33.2,11.1 L37.1,1.4 L42.2,1 C45.5,0.8 48.4,3.2 48.8,6.4 L50,16.2" id="Shape" class="stroke-primary" stroke-width="3" stroke-linecap="round" stroke-linejoin="round"></path>
                <path d="M29.9,27.2 L32.4,50.1 L37.9,49.7 C40.9,49.4 43.5,47.4 44.5,44.5 L50.5,25.6" id="Shape" class="stroke-primary" stroke-width="3" stroke-linecap="round" stroke-linejoin="round"></path>
                <path d="M56.3,31.4 L73.6,29.9 C76.3,29.7 78.6,28.1 79.7,25.6 L81.4,22.1 L71.4,17.6 C67.5,15.8 63.2,15.1 58.9,15.6 L15.7,19.9 L8.2,13.7 C6,11.9 3,11 0.2,11.4 L5.2,28.7 C6.3,32.7 10.1,35.3 14.2,34.9 L30.5,33.5" id="Shape" class="stroke-primary" stroke-width="3" stroke-linecap="round" stroke-linejoin="round"></path>
            </g>
            <path d="M143.2,91.6 C134.1,92.3 130,92.7 127,103.3" id="Shape" class="stroke-primary" stroke-width="3" stroke-linecap="round" stroke-linejoin="round"></path>
        </g>
    </g>
</svg>
